src/assets/images/clients/asana_logo.svg

<svg width="123" height="25" viewBox="0 0 123 25" fill="none" xmlns="http://www.w3.org/2000/svg">
<g clip-path="url(#clip0_615_5153)">
<path fill-rule="evenodd" clip-rule="evenodd" d="M119.9 18.957C119.975 19.8255 120.653 20.9308 121.828 20.9308H122.516C122.782 20.9308 123.001 20.7071 123.001 20.434V4.94749H122.998C122.984 4.6866 122.773 4.47763 122.516 4.47763H120.385C120.128 4.47763 119.917 4.6866 119.903 4.94749H119.9V6.20586C118.595 4.55799 116.537 3.87402 114.474 3.87402C109.783 3.87402 105.98 7.77165 105.98 12.5799C105.98 17.3884 109.783 21.2861 114.474 21.2861V21.2866C116.537 21.2866 118.786 20.466 119.9 18.955L119.9 18.957ZM114.482 18.2392C111.499 18.2392 109.08 15.7057 109.08 12.5799C109.08 9.45469 111.499 6.92104 114.482 6.92104C117.465 6.92104 119.883 9.45469 119.883 12.5799C119.883 15.7057 117.465 18.2392 114.482 18.2392Z" fill="#99BAFF"/>
<path fill-rule="evenodd" clip-rule="evenodd" d="M103.287 19.4893L103.286 11.4757H103.286C103.286 6.95851 100.506 3.91113 96.0724 3.91113C93.9561 3.91113 92.2212 5.16554 91.6085 6.2431C91.476 5.40053 91.0396 4.51488 89.6862 4.51488H88.9965C88.7297 4.51488 88.5117 4.73877 88.5117 5.01196V18.9955C88.5117 18.9959 88.5117 18.997 88.5117 18.9976V20.4997H88.5144C88.5284 20.7602 88.7391 20.9695 88.9967 20.9695H91.1271C91.1597 20.9695 91.1916 20.9654 91.2225 20.9593C91.2367 20.9565 91.2498 20.9508 91.2635 20.9468C91.2793 20.9419 91.2958 20.938 91.3108 20.9317C91.3299 20.9236 91.347 20.9128 91.3647 20.9027C91.3733 20.8973 91.3823 20.8935 91.3907 20.8877C91.4119 20.8737 91.4315 20.8568 91.4503 20.8396C91.4534 20.8363 91.4571 20.8343 91.4602 20.8314C91.4813 20.8104 91.5006 20.7872 91.5178 20.7631C91.518 20.7627 91.518 20.7627 91.518 20.7627C91.5713 20.6877 91.6037 20.5973 91.609 20.4997H91.6117V11.3515C91.6117 8.92543 93.5306 6.95851 95.8977 6.95851C98.2646 6.95851 100.184 8.92543 100.184 11.3515L100.186 18.9981L100.186 18.9955C100.186 19.0023 100.187 19.0092 100.187 19.0165V20.4997H100.19C100.204 20.7602 100.414 20.9695 100.672 20.9695H102.802C102.835 20.9695 102.867 20.9654 102.898 20.9593C102.91 20.9569 102.922 20.9517 102.934 20.9482C102.952 20.943 102.97 20.9385 102.987 20.9317C103.004 20.9242 103.02 20.9139 103.036 20.9045C103.046 20.8987 103.057 20.8944 103.067 20.8877C103.086 20.8746 103.104 20.8586 103.122 20.8427C103.126 20.8385 103.131 20.8353 103.136 20.8309C103.156 20.811 103.174 20.7894 103.19 20.7669C103.192 20.7651 103.193 20.7637 103.194 20.7621C103.247 20.6877 103.279 20.598 103.284 20.5011C103.284 20.5005 103.285 20.4997 103.285 20.4997H103.287V19.4896L103.287 19.4893Z" fill="#99BAFF"/>
<path fill-rule="evenodd" clip-rule="evenodd" d="M81.0996 18.957C81.1741 19.8255 81.8524 20.9308 83.0272 20.9308H83.7148C83.9814 20.9308 84.1994 20.7071 84.1994 20.434V4.94749H84.1967C84.1828 4.6866 83.9721 4.47763 83.7148 4.47763H81.5845C81.3269 4.47763 81.1164 4.6866 81.102 4.94749H81.0996V6.20586C79.7942 4.55799 77.7364 3.87402 75.6727 3.87402C70.9821 3.87402 67.1797 7.77165 67.1797 12.5799C67.1797 17.3884 70.9821 21.2861 75.6727 21.2861V21.2866C77.7364 21.2866 79.9855 20.466 81.0993 18.955L81.0996 18.957ZM75.6809 18.2392C72.698 18.2392 70.2794 15.7057 70.2794 12.5799C70.2794 9.45469 72.698 6.92104 75.6809 6.92104C78.6643 6.92104 81.0824 9.45469 81.0824 12.5799C81.0824 15.7057 78.6643 18.2392 75.6809 18.2392Z" fill="#99BAFF"/>
<path fill-rule="evenodd" clip-rule="evenodd" d="M54.5829 16.7383C56.005 17.7481 57.5574 18.2385 59.0491 18.2385C60.4703 18.2385 61.9395 17.4834 61.9395 16.1689C61.9395 14.414 58.7381 14.141 56.7265 13.4402C54.7147 12.7395 52.9821 11.2909 52.9821 8.94511C52.9821 5.35557 56.1023 3.87305 59.0146 3.87305C60.8598 3.87305 62.7637 4.49675 63.998 5.3902C64.4231 5.72036 64.1642 6.09941 64.1642 6.09941L62.986 7.82433C62.8535 8.01861 62.622 8.18647 62.2896 7.97618C61.9572 7.76603 60.7913 6.92017 59.0146 6.92017C57.2377 6.92017 56.1674 7.76128 56.1674 8.80382C56.1674 10.054 57.5585 10.4472 59.1879 10.8733C62.0273 11.6578 65.1248 12.6008 65.1248 16.1689C65.1248 19.3317 62.2388 21.2861 59.0491 21.2861C56.6319 21.2861 54.574 20.5798 52.848 19.2815C52.4885 18.9127 52.7396 18.5703 52.7396 18.5703L53.9121 16.854C54.1506 16.5332 54.4514 16.645 54.5829 16.7383Z" fill="#99BAFF"/>
<path fill-rule="evenodd" clip-rule="evenodd" d="M46.3924 18.957C46.467 19.8255 47.1452 20.9308 48.3202 20.9308H49.0078C49.2742 20.9308 49.4927 20.7071 49.4927 20.434V4.94749H49.4897C49.4758 4.6866 49.2654 4.47763 49.0078 4.47763H46.8774C46.6199 4.47763 46.4094 4.6866 46.395 4.94749H46.3924V6.20586C45.0873 4.55799 43.0294 3.87402 40.9658 3.87402C36.2752 3.87402 32.4727 7.77165 32.4727 12.5799C32.4727 17.3884 36.2752 21.2861 40.9658 21.2861V21.2866C43.0294 21.2866 45.2783 20.466 46.3922 18.955L46.3924 18.957ZM40.9742 18.2392C37.9909 18.2392 35.5724 15.7057 35.5724 12.5799C35.5724 9.45469 37.9909 6.92104 40.9742 6.92104C43.9573 6.92104 46.3755 9.45469 46.3755 12.5799C46.3755 15.7057 43.9573 18.2392 40.9742 18.2392Z" fill="#99BAFF"/>
<path fill-rule="evenodd" clip-rule="evenodd" d="M20.5652 13.1717C17.4086 13.1717 14.8497 15.7927 14.8497 19.026C14.8497 22.2592 17.4086 24.8802 20.5652 24.8802C23.7219 24.8802 26.2808 22.2592 26.2808 19.026C26.2808 15.7927 23.7219 13.1717 20.5652 13.1717ZM5.7156 13.1722C2.55899 13.1722 0 15.7927 0 19.026C0 22.2592 2.55899 24.8802 5.7156 24.8802C8.87235 24.8802 11.4315 22.2592 11.4315 19.026C11.4315 15.7927 8.87235 13.1722 5.7156 13.1722ZM18.8559 5.85395C18.8559 9.08731 16.297 11.7086 13.1405 11.7086C9.98368 11.7086 7.42481 9.08731 7.42481 5.85395C7.42481 2.62124 9.98368 0 13.1405 0C16.297 0 18.8559 2.62124 18.8559 5.85395Z" fill="#99BAFF"/>
</g>
<defs>
<clipPath id="clip0_615_5153">
<rect width="123" height="24.9441" fill="white"/>
</clipPath>
</defs>
</svg>

<svg xmlns="http://www.w3.org/2000/svg" width="123" height="25" fill="none" xmlns:v="https://vecta.io/nano"><g clip-path="url(#A)" fill-rule="evenodd" fill="#99baff"><path d="M119.9 18.957c.075.869.753 1.974 1.928 1.974h.688c.266 0 .485-.224.485-.497V4.947h-.003a.49.49 0 0 0-.482-.47h-2.131a.49.49 0 0 0-.482.47h-.003v1.258c-1.305-1.648-3.363-2.332-5.426-2.332-4.691 0-8.494 3.898-8.494 8.706s3.803 8.706 8.494 8.706h0c2.063 0 4.312-.821 5.426-2.332v.002zm-5.418-.718c-2.983 0-5.402-2.533-5.402-5.659s2.419-5.659 5.402-5.659 5.401 2.534 5.401 5.659-2.418 5.659-5.401 5.659zm-11.195 1.25l-.001-8.014h0c0-4.517-2.78-7.565-7.214-7.565-2.116 0-3.851 1.254-4.464 2.332-.133-.843-.569-1.728-1.922-1.728h-.69c-.267 0-.485.224-.485.497v13.984V20.5h.003a.49.49 0 0 0 .482.47h2.13c.033 0 .064-.004.095-.01.014-.003.027-.008.041-.012s.032-.009.047-.015.036-.019.054-.029c.009-.005.018-.009.026-.015a.49.49 0 0 0 .06-.048c.031-.029.05-.052.067-.076a.5.5 0 0 0 .091-.263h.003v-9.148c0-2.426 1.919-4.393 4.286-4.393s4.286 1.967 4.286 4.393l.002 7.647v-.003c0 .007.001.014.001.021V20.5h.003a.49.49 0 0 0 .482.47h2.13c.033 0 .065-.004.096-.01.012-.002.024-.008.036-.011.018-.005.036-.01.053-.017s.033-.018.049-.027c.01-.006.021-.01.031-.017.019-.013.037-.029.055-.045a.47.47 0 0 0 .068-.076c.057-.079.089-.169.094-.266l.003-.001v-1.01h0zM81.1 18.957c.075.869.753 1.974 1.928 1.974h.688c.267 0 .485-.224.485-.497V4.947h-.003a.49.49 0 0 0-.482-.47h-2.13a.49.49 0 0 0-.483.47H81.1v1.258c-1.305-1.648-3.363-2.332-5.427-2.332-4.691 0-8.493 3.898-8.493 8.706s3.802 8.706 8.493 8.706h0c2.064 0 4.313-.821 5.427-2.332v.002zm-5.419-.718c-2.983 0-5.401-2.533-5.401-5.659s2.419-5.659 5.401-5.659 5.402 2.534 5.402 5.659-2.418 5.659-5.402 5.659zm-21.098-1.501c1.422 1.01 2.974 1.5 4.466 1.5 1.421 0 2.89-.755 2.89-2.07 0-1.755-3.201-2.028-5.213-2.729s-3.744-2.149-3.744-4.495c0-3.59 3.12-5.072 6.032-5.072 1.845 0 3.749.624 4.983 1.517.425.33.166.709.166.709l-1.178 1.725c-.133.194-.364.362-.696.152S60.791 6.92 59.015 6.92s-2.847.841-2.847 1.884c0 1.25 1.391 1.643 3.02 2.069 2.839.784 5.937 1.727 5.937 5.296 0 3.163-2.886 5.117-6.076 5.117-2.417 0-4.475-.706-6.201-2.005-.359-.369-.108-.711-.108-.711l1.172-1.716c.238-.321.539-.209.671-.116zm-8.191 2.219c.075.869.753 1.974 1.928 1.974h.688c.266 0 .485-.224.485-.497V4.947h-.003a.49.49 0 0 0-.482-.47h-2.13a.49.49 0 0 0-.482.47h-.003v1.258c-1.305-1.648-3.363-2.332-5.427-2.332-4.691 0-8.493 3.898-8.493 8.706s3.802 8.706 8.493 8.706h0c2.064 0 4.313-.821 5.426-2.332v.002zm-5.418-.718c-2.983 0-5.402-2.533-5.402-5.659s2.419-5.659 5.402-5.659 5.401 2.534 5.401 5.659-2.418 5.659-5.401 5.659zm-20.409-5.067c-3.157 0-5.716 2.621-5.716 5.854s2.559 5.854 5.716 5.854 5.716-2.621 5.716-5.854-2.559-5.854-5.716-5.854zm-14.85.001C2.559 13.172 0 15.793 0 19.026s2.559 5.854 5.716 5.854 5.716-2.621 5.716-5.854-2.559-5.854-5.716-5.854zm13.14-7.318c0 3.233-2.559 5.855-5.715 5.855S7.425 9.087 7.425 5.854 9.984 0 13.141 0s5.715 2.621 5.715 5.854z"/></g><defs><clipPath id="A"><path fill="#fff" d="M0 0h123v24.944H0z"/></clipPath></defs></svg>
